assets/ios/swift/Icons.xcassets/volumeOn.imageset/volumeOn.svg

<svg width="24" height="24" viewBox="0 0 24 24" fill="none" xmlns="http://www.w3.org/2000/svg">
<path d="M3 9.9999C3 8.89533 3.89543 7.9999 5 7.9999H7L10.2929 4.70701C10.9229 4.07704 12 4.52321 12 5.41411V18.5857C12 19.4766 10.9229 19.9228 10.2929 19.2928L7 15.9999H5C3.89543 15.9999 3 15.1045 3 13.9999V9.9999ZM7.82843 13.9999L10 16.1715V7.82833L7.82843 9.9999H5V13.9999H7.82843Z" fill="black"/>
<path d="M14.1215 8.46428C14.5121 8.07375 15.1452 8.07376 15.5358 8.46428C16.4395 9.36801 17.0002 10.6194 17.0002 11.9998C17.0002 13.3802 16.4395 14.6316 15.5357 15.5353C15.1452 15.9259 14.512 15.9259 14.1215 15.5353C13.731 15.1448 13.731 14.5116 14.1215 14.1211C14.6655 13.5771 15.0002 12.8285 15.0002 11.9998C15.0002 11.1711 14.6655 10.4225 14.1215 9.87849C13.731 9.48796 13.731 8.8548 14.1215 8.46428Z" fill="black"/>
<path d="M18.364 5.63616C17.9735 5.24563 17.3403 5.24563 16.9498 5.63615C16.5593 6.02667 16.5593 6.65983 16.9498 7.05036C18.2176 8.3182 19 10.0668 19 12.0001C19 13.9333 18.2176 15.6819 16.9498 16.9498C16.5593 17.3403 16.5593 17.9734 16.9498 18.364C17.3403 18.7545 17.9735 18.7545 18.364 18.364C19.9916 16.7364 21 14.485 21 12.0001C21 9.51509 19.9916 7.26374 18.364 5.63616Z" fill="black"/>
</svg>

<svg xmlns="http://www.w3.org/2000/svg" width="24" height="24" fill="black" viewBox="0 0 24 24">
  <path d="M3 10a2 2 0 0 1 2-2h2l3.293-3.293c.63-.63 1.707-.184 1.707.707v13.172c0 .89-1.077 1.337-1.707.707L7 16H5a2 2 0 0 1-2-2v-4Zm4.828 4L10 16.172V7.828L7.828 10H5v4h2.828Zm6.293-5.536a1 1 0 0 1 1.415 0A4.988 4.988 0 0 1 17 12c0 1.38-.56 2.632-1.464 3.535a1 1 0 1 1-1.415-1.414 2.987 2.987 0 0 0 .88-2.121c0-.829-.335-1.578-.88-2.122a1 1 0 0 1 0-1.414Z"/>
  <path d="M18.364 5.636A1 1 0 1 0 16.95 7.05 6.975 6.975 0 0 1 19 12a6.975 6.975 0 0 1-2.05 4.95 1 1 0 0 0 1.414 1.414A8.975 8.975 0 0 0 21 12a8.975 8.975 0 0 0-2.636-6.364Z"/>
</svg>
